icons/burn_unit.svg

<svg width="48" height="48" viewBox="0 0 48 48" fill="none" xmlns="http://www.w3.org/2000/svg">
<path fill-rule="evenodd" clip-rule="evenodd" d="M39 8H9C8.44771 8 8 8.44772 8 9V39C8 39.5523 8.44772 40 9 40H39C39.5523 40 40 39.5523 40 39V9C40 8.44771 39.5523 8 39 8ZM9 6C7.34315 6 6 7.34315 6 9V39C6 40.6569 7.34315 42 9 42H39C40.6569 42 42 40.6569 42 39V9C42 7.34315 40.6569 6 39 6H9Z" fill="black"/>
<path fill-rule="evenodd" clip-rule="evenodd" d="M20.0889 10C20.0889 15.1089 17.7658 18.9036 15.3041 23.3195C12.2373 28.8208 15.0904 33.5826 18.5926 38C18.5926 32.9306 19.3994 30.0689 23.1926 26.2587C25.5254 30.4353 25.7372 33.5009 25 38C34.6627 33.334 34.1463 25.6833 31.33 17C30.787 19 29.7752 20.8182 29.1179 22.0909C27.809 17.0219 24.076 13.3085 20.0889 10Z" fill="black"/>
</svg>

<svg
  xmlns="http://www.w3.org/2000/svg"
  width="24"
  height="24"
  viewBox="0 0 24 24"
  fill="none"
  stroke="currentColor"
  stroke-width="2"
  stroke-linecap="round"
  stroke-linejoin="round"
>
  <path
    fill-rule="evenodd"
    d="M39 8H9a1 1 0 0 0-1 1v30a1 1 0 0 0 1 1h30a1 1 0 0 0 1-1V9a1 1 0 0 0-1-1M9 6a3 3 0 0 0-3 3v30a3 3 0 0 0 3 3h30a3 3 0 0 0 3-3V9a3 3 0 0 0-3-3z"
    clip-rule="evenodd"
  />
  <path
    fill-rule="evenodd"
    d="M20.089 10c0 5.109-2.323 8.904-4.785 13.32-3.067 5.5-.214 10.263 3.289 14.68 0-5.07.806-7.931 4.6-11.741C25.525 30.435 25.737 33.5 25 38c9.663-4.666 9.146-12.317 6.33-21-.543 2-1.555 3.818-2.212 5.09-1.309-5.068-5.042-8.781-9.03-12.09"
    clip-rule="evenodd"
  />
</svg>
